material/.icons/material/music-accidental-double-sharp.svg

<svg xmlns="http://www.w3.org/2000/svg" viewBox="0 0 24 24"><path d="M15.41 10H17V7h-3v1.59l-2 2-2-2V7H7v3h1.59l2 2-2 2H7v3h3v-1.59l2-2 2 2V17h3v-3h-1.59l-2-2 2-2z"/></svg>

<?xml version="1.0" encoding="UTF-8"?><!DOCTYPE svg PUBLIC "-//W3C//DTD SVG 1.1//EN" "http://www.w3.org/Graphics/SVG/1.1/DTD/svg11.dtd"><svg xmlns="http://www.w3.org/2000/svg" xmlns:xlink="http://www.w3.org/1999/xlink" version="1.1" id="mdi-music-accidental-double-sharp" width="24" height="24" viewBox="0 0 24 24"><path d="M15.41 10H17V7H14V8.59L12 10.59L10 8.59V7H7V10H8.59L10.59 12L8.59 14H7V17H10V15.41L12 13.41L14 15.41V17H17V14H15.41L13.41 12L15.41 10Z" /></svg>
